resources/svg/border-inner-o.svg

<svg xmlns="http://www.w3.org/2000/svg" viewBox="0 0 15 15" fill="none"><path d="M1 1.5H2M10 1.5H11M13 1.5H14M13 4.5H14M13 10.5H14M13 13.5H14M10 13.5H11M4 13.5H5M1 13.5H2M1 10.5H2M1 4.5H2M4 1.5H5M1 7.5H14M7.5 1V14" stroke="black"/></svg>

<svg xmlns="http://www.w3.org/2000/svg" viewBox="0 0 15 15" fill="none"><path d="M1 1.5h1m8 0h1m2 0h1m-1 3h1m-1 6h1m-1 3h1m-4 0h1m-7 0h1m-4 0h1m-1-3h1m-1-6h1m2-3h1m-4 6h13M7.5 1v13" stroke="currentColor"/></svg>
